app/assets/images/achievements/icons8-banana.svg

<svg xmlns="http://www.w3.org/2000/svg"  viewBox="0 0 64 64" width="64px" height="64px"><path d="M 51.867188 4.0332031 C 47.867188 4.0332031 45.199219 6.6992188 45.199219 6.6992188 C 45.199219 6.6992188 49 11.199219 49 15.199219 C 49 15.199219 46.771031 16.739203 46.332031 20.533203 C 45.661031 26.339203 42.084969 29.784219 39.417969 32.449219 C 36.017969 35.848219 30.332031 40.199219 22.332031 44.199219 C 14.332031 48.199219 13.099609 52.533203 13.099609 52.533203 C 13.099609 52.533203 12.801031 54.377203 14.332031 55.533203 C 14.332031 55.533203 17.000016 57 19.666016 57 C 43.667016 57 61 36.533203 61 24.533203 C 61 21.479203 60.479547 19.291656 59.685547 17.722656 C 59.726547 17.759656 59.751953 17.783203 59.751953 17.783203 C 57.251953 12.422203 51.867187 14.700203 51.867188 4.0332031 z M 44.740234 21.080078 C 41.920234 24.080078 38.399375 25.369453 35.609375 26.439453 C 31.129375 28.159453 24.160469 29.830469 15.230469 30.230469 C 6.2904688 30.630469 3.4003906 34.089844 3.4003906 34.089844 C 3.4003906 34.089844 2.3805469 35.650078 3.3105469 37.330078 C 3.3105469 37.330078 5.1498437 39.749844 7.5898438 40.839844 C 9.7498437 41.799844 11.929141 42.560859 14.119141 43.130859 C 24.739141 41.220859 41.920234 30.800078 44.740234 21.080078 z"/></svg>

<svg xmlns="http://www.w3.org/2000/svg" xmlns:xlink="http://www.w3.org/1999/xlink" viewBox="0,0,256,256" width="100px" height="100px"><g fill="#9b74ce" fill-rule="nonzero" stroke="none" stroke-width="1" stroke-linecap="butt" stroke-linejoin="miter" stroke-miterlimit="10" stroke-dasharray="" stroke-dashoffset="0" font-family="none" font-weight="none" font-size="none" text-anchor="none" style="mix-blend-mode: normal"><g transform="scale(4,4)"><path d="M51.86719,4.0332c-4,0 -6.66797,2.66602 -6.66797,2.66602c0,0 3.80078,4.5 3.80078,8.5c0,0 -2.22897,1.53998 -2.66797,5.33398c-0.671,5.806 -4.24706,9.25102 -6.91406,11.91602c-3.4,3.399 -9.08594,7.75 -17.08594,11.75c-8,4 -9.23242,8.33398 -9.23242,8.33398c0,0 -0.29858,1.844 1.23242,3c0,0 2.66798,1.4668 5.33398,1.4668c24.001,0 41.33398,-20.4668 41.33398,-32.4668c0,-3.054 -0.52045,-5.24155 -1.31445,-6.81055c0.041,0.037 0.06641,0.06055 0.06641,0.06055c-2.5,-5.361 -7.88477,-3.083 -7.88477,-13.75zM44.74023,21.08008c-2.82,3 -6.34086,4.28938 -9.13086,5.35938c-4.48,1.72 -11.44891,3.39102 -20.37891,3.79102c-8.94,0.4 -11.83008,3.85938 -11.83008,3.85938c0,0 -1.01984,1.56023 -0.08984,3.24023c0,0 1.8393,2.41977 4.2793,3.50977c2.16,0.96 4.3393,1.72102 6.5293,2.29102c10.62,-1.91 27.80109,-12.33078 30.62109,-22.05078z"></path></g></g></svg>
